X: 25957
T: Max
R: reel
M: 4/4
K: Gmajor
|:BAGE D3 G|EGDE GFGA|BddB A2 GA|edBA BAGE|
DGGF GFGA|BddB A2 GA|edBA GABG|EGGF G3 B:|
dGGG dGeG|dBAG E3 D|GFGA BddB|edBG ABGA|
BEEE BEcE|BEEE D2 DE|GFGA BAGE|DGGF G3 B:|

